# LogoTranslator - triforce.logo

LOGO TRIFORCE
  FD 200 LT 120
  WAIT 1500 
  FD 200 LT 120 
  WAIT 1500
  FD 100 LT 60
  WAIT 1500
  FD 100 LT 120
  WAIT 1500
  FD 100 LT 120
  WAIT 1500 
  FD 100 LT 60
  WAIT 1500
  FD 100 
END